X: 1611
T: Renc-i Hâtır Vermesin...
C: Tanburî Ali Efendi
O: Turkey
F: http://compmusic.upf.edu/node/140
N: nisabur--beste--muhammes--renc-i_hatir--tanburi_ali_efendi
N: makam= nisabur
N: form= beste
N: usul= muhammes = 32/4
M: 32/4
L: 1/16
K: C ^c   
Q: 1/4=72
%%MIDI tuningsystem comma53
d6 e2 d4 e4  | f e f g f2 e2 z2 f2 e2 d2  | \
w:  Ren   |  *  *  *  *  *  *  renc_ *  i   | 
c2 d4 e2 e2 f2 e2 d2  | 
w:  hâ  | 
e d c B c2 d2 {e}d6 z2  | z4 e2 f2 e4 f4  | \
w:  tır   |  ver  | 
g4 a4 a3 =c' _b2 a g  | g4 g a g f f4 f g f e  | 
w:  *  *  *  *  me  |  sin   | 
d2 e2 f g f e e8  | e4 f2 g2 f4 e4  | \
w:  fer  |  *  yâ   | 
d4 c4 z2 B4 d2  | d16  | B4 c2 d2 c2 d2 B4  | 
w:  *  *  yâd_ ü   |  ef  |  gan  | 
B4 B2 d2 c2 d2 c2 B2  | A2 B2 c2 d2 z2 f2 e2 f2  | \
w:  *  lar   |  *  *  *  *  sa  | 
e3 d c2 d2 c2 d2 e f e d  | 
w:  na    | 
d14 z2  | .d4 c2 d2 e4 f4  | f3 e f2 g2 f g f e d4  | \
w:   |  Ah  ye  le  lel  lel   |  ye  *  *  le  lel  *  *  *  li   | 
z4 e2 f2 g2 _b2 a2 g2  | 
w:  te  re  li   | 
f e f g f2 e2 d6 e2  | =c4 d2 e2 f8  | \
w:  ye  *  *  le  *  le  lel  le   |  lel  lel  *  li    | 
z4 z2 f2 =c'8  | =c'4 z2 _b2 d'2 c'2 b2 a2  | 
w:  Ye  lel   |  *  le  lel  *  *  le   | 
=c'2 _b2 a2 g2 b2 a2 g2 f2  | _b6 a2 g2 a2 g2 f2  | \
w:  lel  *  *  le  lel  *  *  le   |  lel  *  lel   | 
e2 g2 f2 e2 d8  | f e f g f2 e2 d2 c2 d2 e2  | 
w:  lel  *  *  *  li    |  Öm *  *  *  *  *  rüm   | 
f e f g f2 e2 d2 c2 d2 e2  | d2 z2 c2 d2 e2 g2 f2 e2  | \
w:  câ *  *  *  *  *  nım   |  *  gel_ e fen  | 
e3 d c2 d2 c2 d2 c2 B2  | 
w:  dim   | 
e2 d2 c2 B2 B8  | B3 A B c B c d6 z2  | \
w:  gel   |  hey  *  câ *  *  *  nım    | 
d6 e2 d4 e4  | f e f g f2 e2 z2 f2 e2 d2  | 
w:  Ren   |  *  *  *  *  *  *  renc_ *  i   | 
c2 d4 e2 e2 f2 e2 d2  | e d c B c2 d2 {e}d6 z2  | \
w:  hâ  |  tır   | 
z4 e2 f2 e4 f4  | g4 a4 a3 =c' _b2 a g  | 
w:  ver  |  *  *  *  *  me  | 
g4 g a g f f4 f g f e  | d2 e2 f g f e e8  | \
w:  sin   |  fer  | 
e4 f2 g2 f4 e4  | 
w:  *  yâ   | 
d4 c4 z2 B4 d2  | d16  | B4 c2 d2 c2 d2 B4  | \
w:  *  *  yâd_ ü   |  ef  |  gan  | 
B4 B2 d2 c2 d2 c2 B2  | A2 B2 c2 d2 z2 f2 e2 f2  | 
w:  *  lar   |  *  *  *  *  sa  | 
e3 d c2 d2 c2 d2 e f e d  | d14 z2  | \
w:  na    |   | 
.d4 c2 d2 e4 f4  | f3 e f2 g2 f g f e d4  | 
w:  Ah  ye  le  lel  lel   |  ye  *  *  le  lel  *  *  *  li   | 
z4 e2 f2 g2 _b2 a2 g2  | f e f g f2 e2 d6 e2  | \
w:  te  re  li   |  ye  *  *  le  *  le  lel  le   | 
=c4 d2 e2 f8  | z4 z2 f2 =c'8  | 
w:  lel  lel  *  li    |  Ye  lel   | 
=c'4 z2 _b2 d'2 c'2 b2 a2  | =c'2 _b2 a2 g2 b2 a2 g2 f2  | \
w:  *  le  lel  *  *  le   |  lel  *  *  le  lel  *  *  le   | 
_b6 a2 g2 a2 g2 f2  | 
w:  lel  *  lel   | 
e2 g2 f2 e2 d8  | f e f g f2 e2 d2 c2 d2 e2  | \
w:  lel  *  *  *  li    |  Öm *  *  *  *  *  rüm   | 
f e f g f2 e2 d2 c2 d2 e2  | 
w:  câ *  *  *  *  *  nım   | 
d2 z2 c2 d2 e2 g2 f2 e2  | e3 d c2 d2 c2 d2 c2 B2  | \
w:  *  gel_ e fen  |  dim   | 
e2 d2 c2 B2 B8  | 
w:  gel   | 
a3 g a g ^f ^e f6 z2  | ^e4 ^f4 g4 a4  | \
w:  hey  *  câ *  *  *  nım    |  Çok   | 
a2 g2 ^f2 ^e2 z2 g2 f2 g2  | a6 g ^f g2 f2 _1/4b =c' b a  | 
w:  *  *  *  *  çok  *  mu  |  dur   | 
_1/4b3 a g2 a2 g2 b2 a4  | z4 f2 g2 g8  | \
w:  ser  |  der   | 
f2 _7/8e4 d2 z2 f2 e2 d2  | d c _7/8B2 c2 d2 c2 d2 c2 B2  | 
w:  *  *  *  he  |  vâ  | 
c4 d8-d2 z2  | z4 d2 _7/8e2 f2 g2 a4  | \
w:  yı   |  zül   | 
a4 g2 f2 z2 =c'4 _7/8b2  | a2 g4 f2 g2 f2 g2 a _7/8b  | 
w:  *  *  *  zül fün   |  ol  | 
g3 ^f ^e2 f2 e2 g2 f4  | z4 e2 f2 g4 f2 e2  | \
w:  mak   |  rû   | 
a2 g2 f2 e2 d2 e2 f2 g2  | 
w:  *  *  *  *  rû *  *  zi  | 
e2 f2 e2 d2 c2 d2 e f e d  | d14 z2  | \
w:  gâr    |   | 
d6 e2 d4 e4  | f e f g f2 e2 z2 f2 e2 d2  | 
w:  Ren   |  *  *  *  *  *  *  renc_ *  i   | 
c2 d4 e2 e2 f2 e2 d2  | e d c B c2 d2 {e}d6 z2  | \
w:  hâ  |  tır   | 
z4 e2 f2 e4 f4  | g4 a4 a3 =c' _b2 a g  | 
w:  ver  |  *  *  *  *  me  | 
g4 g a g f f4 f g f e  | d2 e2 f g f e e8  | \
w:  sin   |  fer  | 
e4 f2 g2 f4 e4  | 
w:  *  yâ   | 
d4 c4 z2 B4 d2  | d16  | B4 c2 d2 c2 d2 B4  | \
w:  *  *  yâd_ ü   |  ef  |  gan  | 
B4 B2 d2 c2 d2 c2 B2  | A2 B2 c2 d2 z2 f2 e2 f2  | 
w:  *  lar   |  *  *  *  *  sa  | 
e3 d c2 d2 c2 d2 e f e d  | d14 z2  | \
w:  na    |   | 
.d4 c2 d2 e4 f4  | f3 e f2 g2 f g f e d4  | 
w:  Ah  ye  le  lel  lel   |  ye  *  *  le  lel  *  *  *  li   | 
z4 e2 f2 g2 _b2 a2 g2  | f e f g f2 e2 d6 e2  | \
w:  te  re  li   |  ye  *  *  le  *  le  lel  le   | 
=c4 d2 e2 f8  | z4 z2 f2 =c'8  | 
w:  lel  lel  *  li    |  Ye  lel   | 
=c'4 z2 _b2 d'2 c'2 b2 a2  | =c'2 _b2 a2 g2 b2 a2 g2 f2  | \
w:  *  le  lel  *  *  le   |  lel  *  *  le  lel  *  *  le   | 
_b6 a2 g2 a2 g2 f2  | 
w:  lel  *  lel   | 
e2 g2 f2 e2 d8  | f e f g f2 e2 d2 c2 d2 e2  | \
w:  lel  *  *  *  li    |  Öm *  *  *  *  *  rüm   | 
f e f g f2 e2 d2 c2 d2 e2  | 
w:  câ *  *  *  *  *  nım   | 
d2 z2 c2 d2 e2 g2 f2 e2  | e3 d c2 d2 c2 d2 c2 B2  | \
w:  *  gel_ e fen  |  dim   | 
e2 d2 c2 B2 B8  | 
w:  gel   | 
B14 z2  | |


